src/16/actions/view-task.svg

<svg xmlns="http://www.w3.org/2000/svg" viewBox="0 0 16 16">
  <defs id="defs3051">
    <style type="text/css" id="current-color-scheme">
      .ColorScheme-Text {
        color:#5d656b;
      }
      </style>
  </defs>
 <path style="fill:currentColor;fill-opacity:1;stroke:none" 
       d="M 2 2 L 2 14 L 9 14 L 13 14 L 14 14 L 14 9 L 14 2 L 12 2 L 12 4 L 10 4 L 10 2 L 6 2 L 6 4 L 4 4 L 4 2 L 2 2 z M 3 5 L 13 5 L 13 9 L 13 13 L 9 13 L 3 13 L 3 5 z M 10.335938 6.5 L 7.1875 10.109375 L 5.6621094 8.5566406 L 5 9.2324219 L 7.2265625 11.5 L 11 7.1777344 L 10.335938 6.5 z "
     class="ColorScheme-Text"
     />
</svg>

<svg xmlns="http://www.w3.org/2000/svg" viewBox="0 0 16 16"><path d="M2 2v12h12V2h-2v2h-2V2H6v2H4V2H2zm1 3h10v8H3V5zm7.336 1.5l-3.149 3.61-1.525-1.553L5 9.232 7.227 11.5 11 7.178l-.664-.678z" fill="currentColor" color="#5d656b"/></svg>
